Icons/sg_ruqqq_IconThemer.svg

<svg viewBox="0 0 48 48" xmlns:xlink="http://www.w3.org/1999/xlink">
 <defs>
  <linearGradient id="0">
   <stop stop-opacity="0"/>
   <stop offset="1"/>
  </linearGradient>
  <linearGradient xlink:href="#0" id="1" gradientUnits="userSpaceOnUse" gradientTransform="translate(4e-7,-48)" y1="47" x2="0" y2="1"/>
  <clipPath id="2">
   <g transform="translate(0,-1004.3622)">
    <rect rx="4" y="1005.36" x="1" height="46" width="46" fill="#1890d0"/>
   </g>
  </clipPath>
  <clipPath id="3">
   <g transform="translate(0,-1004.3622)">
    <rect rx="4" y="1005.36" x="1" height="46" width="46" fill="#1890d0"/>
   </g>
  </clipPath>
 </defs>
 <g>
  <g transform="translate(0,-1004.3622)">
   <path d="m 5,1006.3622 c -2.216,0 -4,1.784 -4,4 l 0,37.25 c 0,2.216 1.784,4 4,4 l 38,0 c 2.216,0 4,-1.784 4,-4 l 0,-37.25 c 0,-2.216 -1.784,-4 -4,-4 l -38,0 z m -4,41.5 0,0.5 c 0,2.216 1.784,4 4,4 l 38,0 c 2.216,0 4,-1.784 4,-4 l 0,-0.5 c 0,2.216 -1.784,4 -4,4 l -38,0 c -2.216,0 -4,-1.784 -4,-4 z" opacity="0.02"/>
   <path d="m 1,1047.6122 0,0.25 c 0,2.216 1.784,4 4,4 l 38,0 c 2.216,0 4,-1.784 4,-4 l 0,-0.25 c 0,2.216 -1.784,4 -4,4 l -38,0 c -2.216,0 -4,-1.784 -4,-4 z" opacity="0.05"/>
   <rect width="46" height="46" x="1" y="1005.61" rx="4" opacity="0.1"/>
  </g>
 </g>
 <g>
  <g transform="translate(0,-1004.3622)">
   <rect rx="4" y="1005.36" x="1" height="46" width="46" fill="#f9f9f9"/>
  </g>
 </g>
 <g>
  <rect transform="scale(1,-1)" width="46" height="46" x="1" y="-46.998" rx="4" opacity="0.1" fill="url(#1)"/>
 </g>
 <g>
  <g clip-path="url(#2)">
   <g opacity="0.1">
    <path d="m 36,0 0,48 c 4,0 7,0 12,0 0,-4 0,-42 0,-48 -4,0 -9,0 -12,0 z"/>
    <path d="M 24,0 C 19.609375,0 15,0 12,0 l 0,48 c 3,0 7.609375,0 12,0 z"/>
    <path d="m 24,0 0,48 c 2,0 9,0 12,0 L 36,0 C 33,0 28.390625,0 24,0 z"/>
    <path d="M 12,0 C 7,0 5,0 0,0 c 0,4.736255 0,46 0,48 4,0 9,0 12,0 z"/>
    <path d="M 33.4375,19 C 32.570312,19 32,19.757812 32,20.691406 l 0,6.617188 C 32,28.242188 32.570312,29 33.4375,29 34.300781,29 35,28.242188 35,27.308594 l 0,-6.617188 C 35,19.757812 34.300781,19 33.4375,19 z M 14.566406,19 C 13.699219,19 13,19.757812 13,20.691406 l 0,6.617188 C 13,28.242188 13.699219,29 14.566406,29 15.429688,29 16,28.242188 16,27.308594 l 0,-6.617188 C 16,19.757812 15.429688,19 14.566406,19 z m 0,0"/>
    <path d="m 17,19 0,11.59375 C 17,31.28125 17.324219,32 18,32 l 2,0 0,3.375 C 20,36.273438 20.316406,37 21.1875,37 22.054688,37 23,36.273438 23,35.375 L 23,32 l 2,0 0,3.375 C 25,36.273438 25.945312,37 26.8125,37 27.679688,37 28,36.273438 28,35.375 L 28,32 l 2,0 c 0.675781,0 1,-0.71875 1,-1.40625 L 31,19 z m 0,0"/>
    <path d="m 27.316406,13.199219 1.296875,-1.84375 c 0.07422,-0.109375 0.05469,-0.253907 -0.04297,-0.320313 C 28.46875,10.96875 28.324219,11 28.246094,11.109375 L 26.90625,13.023438 C 26.019531,12.679688 25.035156,12.492188 24,12.492188 c -1.035156,0 -2.019531,0.1875 -2.90625,0.53125 L 19.75,11.109375 C 19.675781,11 19.53125,10.96875 19.429688,11.035156 c -0.09766,0.06641 -0.117188,0.210938 -0.04297,0.320313 l 1.292969,1.84375 C 18.625,14.136719 17.183594,15.917969 17,18 l 14,0 c -0.183594,-2.082031 -1.625,-3.863281 -3.683594,-4.800781 z m -6.269531,2.902343 c -0.429687,0 -0.773437,-0.339843 -0.773437,-0.761718 0,-0.417969 0.34375,-0.757813 0.773437,-0.757813 0.429687,0 0.773437,0.339844 0.773437,0.757813 0,0.421875 -0.347656,0.761718 -0.773437,0.761718 z m 6.003906,0 c -0.429687,0 -0.773437,-0.339843 -0.773437,-0.761718 0,-0.417969 0.34375,-0.757813 0.773437,-0.757813 0.425781,0 0.773438,0.339844 0.773438,0.757813 0,0.421875 -0.347657,0.761718 -0.773438,0.761718 z m 0,0"/>
   </g>
  </g>
 </g>
 <g>
  <g clip-path="url(#3)">
   <g transform="translate(0,-1)">
    <path d="m 36,0 0,48 c 4,0 7,0 12,0 0,-4 0,-42 0,-48 -4,0 -9,0 -12,0 z" fill="#ffa135"/>
    <path d="M 24,0 C 19.609375,0 15,0 12,0 l 0,48 c 3,0 7.609375,0 12,0 z" fill="#5ea3bf"/>
    <path d="m 24,0 0,48 c 2,0 9,0 12,0 L 36,0 C 33,0 28.390625,0 24,0 z" fill="#fa616b"/>
    <path d="M 12,0 C 7,0 5,0 0,0 c 0,4.736255 0,46 0,48 4,0 9,0 12,0 z" fill="#6ec77d"/>
    <path d="M 33.4375,19 C 32.570312,19 32,19.757812 32,20.691406 l 0,6.617188 C 32,28.242188 32.570312,29 33.4375,29 34.300781,29 35,28.242188 35,27.308594 l 0,-6.617188 C 35,19.757812 34.300781,19 33.4375,19 z M 14.566406,19 C 13.699219,19 13,19.757812 13,20.691406 l 0,6.617188 C 13,28.242188 13.699219,29 14.566406,29 15.429688,29 16,28.242188 16,27.308594 l 0,-6.617188 C 16,19.757812 15.429688,19 14.566406,19 z m 0,0" fill="#f8f8f8"/>
    <path d="m 17,19 0,11.59375 C 17,31.28125 17.324219,32 18,32 l 2,0 0,3.375 C 20,36.273438 20.316406,37 21.1875,37 22.054688,37 23,36.273438 23,35.375 L 23,32 l 2,0 0,3.375 C 25,36.273438 25.945312,37 26.8125,37 27.679688,37 28,36.273438 28,35.375 L 28,32 l 2,0 c 0.675781,0 1,-0.71875 1,-1.40625 L 31,19 z m 0,0" fill="#f8f8f8"/>
    <path d="m 27.316406,13.199219 1.296875,-1.84375 c 0.07422,-0.109375 0.05469,-0.253907 -0.04297,-0.320313 C 28.46875,10.96875 28.324219,11 28.246094,11.109375 L 26.90625,13.023438 C 26.019531,12.679688 25.035156,12.492188 24,12.492188 c -1.035156,0 -2.019531,0.1875 -2.90625,0.53125 L 19.75,11.109375 C 19.675781,11 19.53125,10.96875 19.429688,11.035156 c -0.09766,0.06641 -0.117188,0.210938 -0.04297,0.320313 l 1.292969,1.84375 C 18.625,14.136719 17.183594,15.917969 17,18 l 14,0 c -0.183594,-2.082031 -1.625,-3.863281 -3.683594,-4.800781 z m -6.269531,2.902343 c -0.429687,0 -0.773437,-0.339843 -0.773437,-0.761718 0,-0.417969 0.34375,-0.757813 0.773437,-0.757813 0.429687,0 0.773437,0.339844 0.773437,0.757813 0,0.421875 -0.347656,0.761718 -0.773437,0.761718 z m 6.003906,0 c -0.429687,0 -0.773437,-0.339843 -0.773437,-0.761718 0,-0.417969 0.34375,-0.757813 0.773437,-0.757813 0.425781,0 0.773438,0.339844 0.773438,0.757813 0,0.421875 -0.347657,0.761718 -0.773438,0.761718 z m 0,0" fill="#f8f8f8"/>
   </g>
  </g>
 </g>
 <g>
  <g transform="translate(0,-1004.3622)">
   <path d="m 1,1043.3622 0,4 c 0,2.216 1.784,4 4,4 l 38,0 c 2.216,0 4,-1.784 4,-4 l 0,-4 c 0,2.216 -1.784,4 -4,4 l -38,0 c -2.216,0 -4,-1.784 -4,-4 z" opacity="0.1"/>
  </g>
 </g>
</svg>

<svg viewBox="0 0 48 48"><defs><linearGradient id="linearGradient3764" x1="1" x2="47" gradientUnits="userSpaceOnUse" gradientTransform="translate(-48.000001,0.00221467)"><stop stop-color="#efefef" stop-opacity="1"/><stop offset="1" stop-color="#f9f9f9" stop-opacity="1"/></linearGradient><clipPath id="clipPath-625628903"><g transform="translate(0,-1004.3622)"><rect rx="4" y="1005.36" x="1" height="46" width="46" fill="#1890d0"/></g></clipPath><clipPath id="clipPath-640864264"><g transform="translate(0,-1004.3622)"><rect rx="4" y="1005.36" x="1" height="46" width="46" fill="#1890d0"/></g></clipPath></defs><g><path d="m 1 43 l 0 0.25 c 0 2.216 1.784 4 4 4 l 38 0 c 2.216 0 4 -1.784 4 -4 l 0 -0.25 c 0 2.216 -1.784 4 -4 4 l -38 0 c -2.216 0 -4 -1.784 -4 -4 z m 0 0.5 l 0 0.5 c 0 2.216 1.784 4 4 4 l 38 0 c 2.216 0 4 -1.784 4 -4 l 0 -0.5 c 0 2.216 -1.784 4 -4 4 l -38 0 c -2.216 0 -4 -1.784 -4 -4 z" opacity="0.02"/><path d="m 1 43.25 l 0 0.25 c 0 2.216 1.784 4 4 4 l 38 0 c 2.216 0 4 -1.784 4 -4 l 0 -0.25 c 0 2.216 -1.784 4 -4 4 l -38 0 c -2.216 0 -4 -1.784 -4 -4 z" opacity="0.05"/><path d="m 1 43 l 0 0.25 c 0 2.216 1.784 4 4 4 l 38 0 c 2.216 0 4 -1.784 4 -4 l 0 -0.25 c 0 2.216 -1.784 4 -4 4 l -38 0 c -2.216 0 -4 -1.784 -4 -4 z" opacity="0.1"/></g><g><rect width="46" height="46" x="-47" y="1" rx="4" transform="matrix(0,-1,1,0,0,0)" fill="url(#linearGradient3764)" fill-opacity="1"/></g><g><g clip-path="url(#clipPath-625628903)"><g opacity="0.1"><!-- color: #f9f9f9 --><path d="m 36 0 0 48 c 4 0 7 0 12 0 0 -4 0 -42 0 -48 -4 0 -9 0 -12 0 z" fill="#000"/><path d="m 24 0 c -4.391 0 -9 0 -12 0 l 0 48 c 3 0 7.609 0 12 0 z" fill="#000"/><path d="m 24 0 0 48 c 2 0 9 0 12 0 l 0 -48 c -3 0 -7.609 0 -12 0 z" fill="#000"/><path d="M 12,0 C 7,0 5,0 0,0 c 0,4.736255 0,46 0,48 4,0 9,0 12,0 z" fill="#000"/><path d="m 33.438 19 c -0.867 0 -1.438 0.758 -1.438 1.691 l 0 6.617 c 0 0.934 0.57 1.691 1.438 1.691 0.863 0 1.563 -0.758 1.563 -1.691 l 0 -6.617 c 0 -0.934 -0.699 -1.691 -1.563 -1.691 z m -18.871 0 c -0.867 0 -1.566 0.758 -1.566 1.691 l 0 6.617 c 0 0.934 0.699 1.691 1.566 1.691 0.863 0 1.434 -0.758 1.434 -1.691 l 0 -6.617 c 0 -0.934 -0.57 -1.691 -1.434 -1.691 z m 0 0" fill="#000"/><path d="m 17 19 0 11.594 c 0 0.688 0.324 1.406 1 1.406 l 2 0 0 3.375 c 0 0.898 0.316 1.625 1.188 1.625 0.867 0 1.813 -0.727 1.813 -1.625 l 0 -3.375 l 2 0 0 3.375 c 0 0.898 0.945 1.625 1.813 1.625 0.867 0 1.188 -0.727 1.188 -1.625 l 0 -3.375 l 2 0 c 0.676 0 1 -0.719 1 -1.406 l 0 -11.594 z m 0 0" fill="#000"/><path d="m 27.316 13.199 1.297 -1.844 c 0.074 -0.109 0.055 -0.254 -0.043 -0.32 c -0.102 -0.066 -0.246 -0.035 -0.324 0.074 l -1.34 1.914 c -0.887 -0.344 -1.871 -0.531 -2.906 -0.531 c -1.035 0 -2.02 0.188 -2.906 0.531 l -1.344 -1.914 c -0.074 -0.109 -0.219 -0.141 -0.32 -0.074 c -0.098 0.066 -0.117 0.211 -0.043 0.32 l 1.293 1.844 c -2.055 0.937 -3.496 2.719 -3.68 4.801 l 14 0 c -0.184 -2.082 -1.625 -3.863 -3.684 -4.801 z m -6.27 2.902 c -0.43 0 -0.773 -0.34 -0.773 -0.762 0 -0.418 0.344 -0.758 0.773 -0.758 0.43 0 0.773 0.34 0.773 0.758 0 0.422 -0.348 0.762 -0.773 0.762 z m 6 0 c -0.43 0 -0.773 -0.34 -0.773 -0.762 0 -0.418 0.344 -0.758 0.773 -0.758 0.426 0 0.773 0.34 0.773 0.758 0 0.422 -0.348 0.762 -0.773 0.762 z m 0 0" fill="#000"/></g></g></g><g><g clip-path="url(#clipPath-640864264)"><g transform="translate(0,-1)"><!-- color: #f9f9f9 --><path d="m 36 0 0 48 c 4 0 7 0 12 0 0 -4 0 -42 0 -48 -4 0 -9 0 -12 0 z" fill="#ffa135"/><path d="m 24 0 c -4.391 0 -9 0 -12 0 l 0 48 c 3 0 7.609 0 12 0 z" fill="#5ea3bf"/><path d="m 24 0 0 48 c 2 0 9 0 12 0 l 0 -48 c -3 0 -7.609 0 -12 0 z" fill="#fa616b"/><path d="M 12,0 C 7,0 5,0 0,0 c 0,4.736255 0,46 0,48 4,0 9,0 12,0 z" fill="#6ec77d"/><path d="m 33.438 19 c -0.867 0 -1.438 0.758 -1.438 1.691 l 0 6.617 c 0 0.934 0.57 1.691 1.438 1.691 0.863 0 1.563 -0.758 1.563 -1.691 l 0 -6.617 c 0 -0.934 -0.699 -1.691 -1.563 -1.691 z m -18.871 0 c -0.867 0 -1.566 0.758 -1.566 1.691 l 0 6.617 c 0 0.934 0.699 1.691 1.566 1.691 0.863 0 1.434 -0.758 1.434 -1.691 l 0 -6.617 c 0 -0.934 -0.57 -1.691 -1.434 -1.691 z m 0 0" fill="#f8f8f8"/><path d="m 17 19 0 11.594 c 0 0.688 0.324 1.406 1 1.406 l 2 0 0 3.375 c 0 0.898 0.316 1.625 1.188 1.625 0.867 0 1.813 -0.727 1.813 -1.625 l 0 -3.375 l 2 0 0 3.375 c 0 0.898 0.945 1.625 1.813 1.625 0.867 0 1.188 -0.727 1.188 -1.625 l 0 -3.375 l 2 0 c 0.676 0 1 -0.719 1 -1.406 l 0 -11.594 z m 0 0" fill="#f8f8f8"/><path d="m 27.316 13.199 1.297 -1.844 c 0.074 -0.109 0.055 -0.254 -0.043 -0.32 c -0.102 -0.066 -0.246 -0.035 -0.324 0.074 l -1.34 1.914 c -0.887 -0.344 -1.871 -0.531 -2.906 -0.531 c -1.035 0 -2.02 0.188 -2.906 0.531 l -1.344 -1.914 c -0.074 -0.109 -0.219 -0.141 -0.32 -0.074 c -0.098 0.066 -0.117 0.211 -0.043 0.32 l 1.293 1.844 c -2.055 0.937 -3.496 2.719 -3.68 4.801 l 14 0 c -0.184 -2.082 -1.625 -3.863 -3.684 -4.801 z m -6.27 2.902 c -0.43 0 -0.773 -0.34 -0.773 -0.762 0 -0.418 0.344 -0.758 0.773 -0.758 0.43 0 0.773 0.34 0.773 0.758 0 0.422 -0.348 0.762 -0.773 0.762 z m 6 0 c -0.43 0 -0.773 -0.34 -0.773 -0.762 0 -0.418 0.344 -0.758 0.773 -0.758 0.426 0 0.773 0.34 0.773 0.758 0 0.422 -0.348 0.762 -0.773 0.762 z m 0 0" fill="#f8f8f8"/></g></g></g><g><g transform="translate(0,-1004.3622)"><path d="m 1 1043.36 0 4 c 0 2.216 1.784 4 4 4 l 38 0 c 2.216 0 4 -1.784 4 -4 l 0 -4 c 0 2.216 -1.784 4 -4 4 l -38 0 c -2.216 0 -4 -1.784 -4 -4 z" opacity="0.1"/></g></g></svg>
